packages/ffe-icons/icons/filled/sm/switch_account.svg

<svg xmlns="http://www.w3.org/2000/svg" height="20" viewBox="0 -960 960 960" width="20"><path d="M551.955-494.769q45.814 0 77.929-32.07 32.115-32.069 32.115-77.884 0-45.814-32.07-77.929t-77.884-32.115q-45.814 0-77.929 32.07t-32.115 77.884q0 45.814 32.07 77.929t77.884 32.115ZM324.309-260.001q-26.527 0-45.417-18.891-18.891-18.89-18.891-45.417v-455.382q0-26.527 18.891-45.417 18.89-18.891 45.417-18.891h455.382q26.527 0 45.417 18.891 18.891 18.89 18.891 45.417v455.382q0 26.527-18.891 45.417-18.89 18.891-45.417 18.891H324.309Zm-144 144q-26.527 0-45.417-18.891-18.891-18.89-18.891-45.417v-493.69q0-11.05 7.419-18.525 7.418-7.475 18.384-7.475 10.966 0 18.581 7.475T168-673.999v493.69q0 5.385 3.462 8.847 3.462 3.462 8.847 3.462h493.69q11.05 0 18.525 7.418 7.475 7.418 7.475 18.384 0 10.966-7.475 18.581-7.475 7.616-18.525 7.616h-493.69ZM323.539-312h456.922v-31q-45-49-103.833-75.615-58.833-26.615-124.615-26.615t-124.628 26.615Q368.539-392 323.539-343v31Z"/></svg>

<svg xmlns="http://www.w3.org/2000/svg" height="20" viewBox="0 -960 960 960" width="20"><path d="M551.95-494.77q45.82 0 77.93-32.07Q662-558.91 662-604.72q0-45.82-32.07-77.93-32.07-32.12-77.88-32.12-45.82 0-77.93 32.07Q442-650.63 442-604.81q0 45.81 32.07 77.93 32.07 32.11 77.88 32.11ZM324.31-260q-26.53 0-45.42-18.89T260-324.31v-455.38q0-26.53 18.89-45.42T324.31-844h455.38q26.53 0 45.42 18.89T844-779.69v455.38q0 26.53-18.89 45.42T779.69-260H324.31Zm-144 144q-26.53 0-45.42-18.89T116-180.31V-674q0-11.05 7.42-18.52 7.42-7.48 18.38-7.48 10.97 0 18.58 7.48Q168-685.05 168-674v493.69q0 5.39 3.46 8.85t8.85 3.46H674q11.05 0 18.52 7.42 7.48 7.42 7.48 18.38 0 10.97-7.48 18.58Q685.05-116 674-116H180.31Zm143.23-196h456.92v-31q-45-49-103.83-75.61-58.84-26.62-124.62-26.62t-124.62 26.62Q368.54-392 323.54-343v31Z"/></svg>
